X:7627
T:Toomgraney Castle
O:england
M:4/4
L:1/8
S:James Kelly
R:hornpipe
K:Am
cB||:A2AB AG (3EFG)|AGAB {d}cBcd|(3efg) fa gedc|B2G2G2 cB|A2AB AG (3EFG)
|AGAB {d}cBcd|(3efg) fa gedB|1 c2A2A2 cB:|2 c2A2A2 (3Bcd)||eaab ag (3efg
)|agab a2
ge|dega gedc|B2G2G2 (3efg)|~a3b ag (3efg)|agab a2ge|dega gedB|c2A2A2 (3B
cd)|eaab ag (3efg)|agab a2ge|dega gedc|BcdB GB{d}cB|A2AB AG (3EFG)|AGAB
{d}
cBcd|(3efg) fa gedB|c2A2A2||


